dist/img/bg.svg

<svg width="1158" height="720" fill="none" xmlns="http://www.w3.org/2000/svg"><g opacity=".3"><path d="M404.358 1061.64c-322.162 0-362.77-211.752-348.38-318.488C77.75 581.656 256.296 496.435 282.423 447.096c26.129-49.364 0-121.129 0-121.129S469.68 451.581 386.939 581.656C304.2 711.755 452.261 868.767 482.743 774.55c30.485-94.192 4.356-165.982 4.356-165.982s108.868 31.397 126.287 197.379c17.418 165.982-165.483 255.693-209.028 255.693Z" fill="#FC0001"/><path d="M643.878 294.535c-163.737 94.88-104.515 210.838-13.066 300.567 112.822 110.675 156.773 287.096-87.094 363.354-188.255 58.874-108.869 112.154-108.869 112.154s428.397 94.27 579.181-174.967C1144.68 662.379 905.162 415.67 905.162 415.67s30.484 179.432-100.157 165.987c-112.495-11.596-115.102-119.603-65.322-215.328C805.005 240.729 683.07 151 683.07 151s30.484 103.174-39.192 143.535Z" fill="#FC0001"/><path d="M334.685 496.429c-352.738 161.489-317.9 493.432-113.226 569.691 204.675 76.27 365.798-49.34 370.154-170.451 4.354-121.11-34.839-197.372-34.839-197.372s-60.966 206.337-182.899 103.18c-121.933-103.18-39.19-305.048-39.19-305.048ZM710.273 608.581c-161.125-62.789-154.468-211.767-116.489-250.085 52.257-52.713 78.924-43.604 103.426-70.641 30.481-33.659 13.063-97.574 13.063-97.574s78.388 88.596 13.065 158.138c-56.331 59.937-69.675 179.418-13.065 260.162Z" fill="#FB6D01"/><path d="M930.567 462.017c226.443 231.019 103.063 527.838-60.239 583.903-163.305 56.07-189.434 53.84-252.577 17.94-63.145-35.87 17.419-186.145 132.82-213.078 115.401-26.907 58.79-53.815 4.356-116.624-54.438-62.809-34.115-183.919-34.115-183.919s83.467 94.962 161.856 58.325c74.744-34.946 47.899-146.547 47.899-146.547Z" fill="#FB6D01"/><path d="M772.326 637.748C730.957 776.817 944.34 803.735 916.033 911.387c-28.307 107.653-235.156 134.573-235.156 134.573s253.48 50.98 330.963-116.627c65.32-141.318-54.438-208.603-137.178-215.327-97.891-7.965-102.336-76.258-102.336-76.258Z" fill="#EFA204"/><path d="M957.416 508.384c148.064 189.147 51.314 310.91-10.161 250.452-61.473-60.433 50.079-144.288 10.161-250.452ZM265.002 563.727C27.67 740.909 45.814 922.604 163.392 1021.29c117.578 98.68 317.17 96.43 365.072-22.43 47.902-118.885-28.306-139.066-172.013-170.471-143.704-31.405-91.449-264.662-91.449-264.662ZM667.815 678.119c115.398 91.957 154.589 192.884 111.045 282.615-43.549 89.706-235.156 125.596-204.674 20.167 30.485-105.401 124.11-125.591 124.11-204.103 0-78.489-30.481-98.679-30.481-98.679Z" fill="#EFA204"/><path d="M201.868 646.687c-158.947 181.68-82.013 385.023 18.146 411.953 100.159 26.93 249.673-30.64 260.559-93.446 10.888-62.804-6.532-94.218-6.532-94.218s23.954 31.414-58.788 76.267c-82.741 44.853-100.159 33.634-100.159 33.634s43.545-62.804-54.435-170.46c-97.983-107.657-58.791-163.73-58.791-163.73ZM532.828 705.01c67.498 96.434 28.307 195.147 28.307 195.147s0-38.137-32.662-76.273c-32.66-38.136 4.355-118.874 4.355-118.874ZM933.463 971.922c105.907-87.272 74.037-177.185-8.71-217.572-82.738-40.364-89.272-29.16-89.272-29.16s65.239 72.899 82.74 107.661c30.484 60.569 10.886 139.071-65.32 179.439-76.211 40.38 26.128 4.5 80.562-40.368ZM687.42 316.992c-82.74 51.579-132.822 85.228-113.226 165.987 25.051 103.209 113.226 98.688 113.226 98.688s-56.612-56.074-50.082-125.608c6.533-69.533 50.082-139.067 50.082-139.067Z" fill="#FACF67"/><path d="M815.879 523.351c67.498-67.281 17.161-95.291 6.531-148.043-7.981-39.628 19.597-80.736 19.597-80.736s-70.463 71.799-41.37 118.117c47.904 76.268 15.242 110.662 15.242 110.662Z" fill="#FC0001"/><path d="M386.937 363.359c17.419 53.839 16.564 81.637-23.226 130.077-79.838 97.206-17.419 162.998-18.871 158.503-1.451-4.47-7.825-95.348 42.097-136.053 69.674-56.827 0-152.527 0-152.527Z" fill="#FCE8B3"/><path d="M430.493 660.895c-27.58 59.822-2.903 91.212-2.903 91.212l2.903-91.212Z" fill="#FC0001"/><path d="M986.452 622.014c65.318 68.785 78.388 134.584 24.678 234.751 7.26-46.343-37.74-80.736-37.74-80.736s42.39-37.357 40.64-73.279c-1.45-29.9-27.578-80.736-27.578-80.736Z" fill="#FCE8B3"/><path d="M959.586 752.882c28.305-75.522-24.677-103.188-65.322-130.107-40.644-26.894-37.741-97.93-37.741-97.93s-51.528 51.595-21.047 127.092c22.336 55.333 124.11 100.945 124.11 100.945Z" fill="#FACF67"/></g><g filter="url(#a)"><circle cx="579" cy="492" r="229" fill="#A00"/></g><defs><filter id="a" x="0" y="-87" width="1158" height="1158" filterUnits="userSpaceOnUse" color-interpolation-filters="sRGB"><feFlood flood-opacity="0" result="BackgroundImageFix"/><feBlend in="SourceGraphic" in2="BackgroundImageFix" result="shape"/><feGaussianBlur stdDeviation="175" result="effect1_foregroundBlur_603_750"/></filter></defs></svg>

<svg width="1158" height="720" viewBox="0 0 1158 720" fill="none" xmlns="http://www.w3.org/2000/svg">
<g opacity="0.3">
<path d="M404.358 1061.64C82.1957 1061.64 41.5875 849.888 55.9772 743.152C77.7513 581.656 256.297 496.435 282.424 447.096C308.553 397.732 282.424 325.967 282.424 325.967C282.424 325.967 469.68 451.581 386.939 581.656C304.2 711.755 452.261 868.767 482.743 774.55C513.228 680.358 487.099 608.568 487.099 608.568C487.099 608.568 595.967 639.965 613.386 805.947C630.804 971.929 447.903 1061.64 404.358 1061.64Z" fill="#FC0001"/>
<path d="M643.878 294.535C480.141 389.415 539.363 505.373 630.812 595.102C743.634 705.777 787.585 882.198 543.718 958.456C355.463 1017.33 434.849 1070.61 434.849 1070.61C434.849 1070.61 863.246 1164.88 1014.03 895.643C1144.68 662.379 905.162 415.67 905.162 415.67C905.162 415.67 935.646 595.102 805.005 581.657C692.51 570.061 689.903 462.054 739.683 366.329C805.005 240.729 683.07 151 683.07 151C683.07 151 713.554 254.174 643.878 294.535Z" fill="#FC0001"/>
<path d="M334.685 496.429C-18.0525 657.918 16.7843 989.861 221.459 1066.12C426.134 1142.39 587.257 1016.78 591.613 895.669C595.967 774.559 556.774 698.297 556.774 698.297C556.774 698.297 495.808 904.634 373.875 801.477C251.942 698.297 334.685 496.429 334.685 496.429Z" fill="#FB6D01"/>
<path d="M710.273 608.581C549.148 545.792 555.805 396.814 593.784 358.496C646.041 305.783 672.708 314.892 697.21 287.855C727.691 254.196 710.273 190.281 710.273 190.281C710.273 190.281 788.661 278.877 723.338 348.419C667.007 408.356 653.663 527.837 710.273 608.581Z" fill="#FB6D01"/>
<path d="M930.567 462.017C1157.01 693.036 1033.63 989.855 870.328 1045.92C707.023 1101.99 680.894 1099.76 617.751 1063.86C554.606 1027.99 635.17 877.715 750.571 850.782C865.972 823.875 809.361 796.967 754.927 734.158C700.489 671.349 720.812 550.239 720.812 550.239C720.812 550.239 804.279 645.201 882.668 608.564C957.412 573.618 930.567 462.017 930.567 462.017Z" fill="#FB6D01"/>
<path d="M772.326 637.748C730.957 776.817 944.34 803.735 916.033 911.387C887.726 1019.04 680.877 1045.96 680.877 1045.96C680.877 1045.96 934.357 1096.94 1011.84 929.333C1077.16 788.015 957.402 720.73 874.662 714.006C776.771 706.041 772.326 637.748 772.326 637.748Z" fill="#EFA204"/>
<path d="M957.416 508.384C1105.48 697.531 1008.73 819.294 947.255 758.836C885.782 698.403 997.334 614.548 957.416 508.384Z" fill="#EFA204"/>
<path d="M265.002 563.727C27.6701 740.909 45.8144 922.604 163.392 1021.29C280.97 1119.97 480.562 1117.72 528.464 998.86C576.366 879.975 500.158 859.794 356.451 828.389C212.747 796.984 265.002 563.727 265.002 563.727Z" fill="#EFA204"/>
<path d="M667.815 678.119C783.213 770.076 822.404 871.003 778.86 960.734C735.311 1050.44 543.704 1086.33 574.186 980.901C604.671 875.5 698.296 855.31 698.296 776.798C698.296 698.309 667.815 678.119 667.815 678.119Z" fill="#EFA204"/>
<path d="M201.868 646.687C42.9206 828.367 119.855 1031.71 220.014 1058.64C320.173 1085.57 469.687 1028 480.573 965.194C491.461 902.39 474.041 870.976 474.041 870.976C474.041 870.976 497.995 902.39 415.253 947.243C332.512 992.096 315.094 980.877 315.094 980.877C315.094 980.877 358.639 918.073 260.659 810.417C162.676 702.76 201.868 646.687 201.868 646.687Z" fill="#FACF67"/>
<path d="M532.828 705.01C600.326 801.444 561.135 900.157 561.135 900.157C561.135 900.157 561.135 862.02 528.473 823.884C495.813 785.748 532.828 705.01 532.828 705.01Z" fill="#FACF67"/>
<path d="M933.463 971.922C1039.37 884.65 1007.5 794.737 924.753 754.35C842.015 713.986 835.481 725.19 835.481 725.19C835.481 725.19 900.72 798.089 918.221 832.851C948.705 893.42 929.107 971.922 852.901 1012.29C776.69 1052.67 879.029 1016.79 933.463 971.922Z" fill="#FACF67"/>
<path d="M687.42 316.992C604.68 368.571 554.598 402.22 574.194 482.979C599.245 586.188 687.42 581.667 687.42 581.667C687.42 581.667 630.808 525.593 637.338 456.059C643.871 386.526 687.42 316.992 687.42 316.992Z" fill="#FACF67"/>
<path d="M815.879 523.351C883.377 456.07 833.04 428.06 822.41 375.308C814.429 335.68 842.007 294.572 842.007 294.572C842.007 294.572 771.544 366.371 800.637 412.689C848.541 488.957 815.879 523.351 815.879 523.351Z" fill="#FC0001"/>
<path d="M386.937 363.359C404.356 417.198 403.501 444.996 363.711 493.436C283.873 590.642 346.292 656.434 344.84 651.939C343.389 647.469 337.015 556.591 386.937 515.886C456.611 459.059 386.937 363.359 386.937 363.359Z" fill="#FCE8B3"/>
<path d="M430.493 660.895C402.913 720.717 427.59 752.107 427.59 752.107L430.493 660.895Z" fill="#FC0001"/>
<path d="M986.452 622.014C1051.77 690.799 1064.84 756.598 1011.13 856.765C1018.39 810.422 973.39 776.029 973.39 776.029C973.39 776.029 1015.78 738.672 1014.03 702.75C1012.58 672.85 986.452 622.014 986.452 622.014Z" fill="#FCE8B3"/>
<path d="M959.586 752.882C987.891 677.36 934.909 649.694 894.264 622.775C853.62 595.881 856.523 524.845 856.523 524.845C856.523 524.845 804.995 576.44 835.476 651.937C857.812 707.27 959.586 752.882 959.586 752.882Z" fill="#FACF67"/>
</g>
<g filter="url(#filter0_f_603_750)">
<circle cx="579" cy="492" r="229" fill="#AA0000"/>
</g>
<defs>
<filter id="filter0_f_603_750" x="0" y="-87" width="1158" height="1158" filterUnits="userSpaceOnUse" color-interpolation-filters="sRGB">
<feFlood flood-opacity="0" result="BackgroundImageFix"/>
<feBlend mode="normal" in="SourceGraphic" in2="BackgroundImageFix" result="shape"/>
<feGaussianBlur stdDeviation="175" result="effect1_foregroundBlur_603_750"/>
</filter>
</defs>
</svg>
